X: 4142
T: The CASHMERE SHAWL
R: Reel.
%R: reel
B: James Kerr "Merry Melodies" v.4 p.17 #142
Z: 2016 John Chambers <jc:trillian.mit.edu>
M: C|
L: 1/8
K: Am	% and C
|:\
A2(AB) AGED | EGAB c2(BG) |\
AcBG ED Aa |[1 gedB c2(BG) :|[2 gedB (cB)c2 |:\
ecgc eccg | ecge d2(cd) |\
ecgc eccg |[1 afge d2(cd) :|[2 gecB (cB)c2 |]

%%sep 1 1 500
%%sep 1 1 500

